packages/bezier-icons/icons/ios.svg

<svg width="24" height="24" viewBox="0 0 24 24" fill="none" xmlns="http://www.w3.org/2000/svg">
<path fill-rule="evenodd" clip-rule="evenodd" d="M5 2C3.89543 2 3 2.89543 3 4V20C3 21.1046 3.89543 22 5 22H13C13.0771 22 13.1532 21.9956 13.2281 21.9871C13.2905 21.996 13.3525 22.0005 13.4139 22.0005C13.6951 22.0005 14.0431 21.8744 14.4289 21.7346C14.9087 21.5606 15.4469 21.3655 15.9879 21.3655C16.4727 21.3655 16.8931 21.5226 17.3079 21.6776C17.712 21.8285 18.1109 21.9775 18.5589 21.9775C20.5359 21.9775 21.9999 17.8565 21.9999 17.8565C21.9999 17.8565 19.9059 17.0465 19.9059 14.6935C19.9059 12.6075 21.5869 11.7485 21.5869 11.7485C21.5869 11.7485 20.7269 10.1935 18.5419 10.1935C17.7696 10.1935 17.1062 10.4609 16.5869 10.6703C16.2529 10.8049 15.9784 10.9155 15.7729 10.9155C15.516 10.9155 15.2063 10.7962 14.8466 10.6576C14.3481 10.4656 13.7535 10.2365 13.0699 10.2365C11.2589 10.2365 9.3269 11.8585 9.3269 14.9495C9.3269 16.2803 9.7365 17.749 10.3459 19H5V5H13V9H15V4C15 2.89543 14.1046 2 13 2H5ZM17.9572 8.94057C18.9722 7.72057 18.7612 6.45557 18.7612 6.45557C18.7612 6.45557 17.3412 6.46157 16.3192 7.80757C15.4112 9.00457 15.6432 10.0296 15.6432 10.0296C15.6432 10.0296 16.8742 10.2426 17.9572 8.94057Z" fill="#313234"/>
</svg>

<svg xmlns="http://www.w3.org/2000/svg" width="24" height="24" fill="none" viewBox="0 0 24 24"><path fill="#313234" fill-rule="evenodd" d="M5 2a2 2 0 0 0-2 2v16a2 2 0 0 0 2 2h8q.116 0 .228-.013.094.014.186.014c.281 0 .63-.127 1.015-.266.48-.174 1.018-.37 1.559-.37.485 0 .905.158 1.32.313.404.15.803.3 1.25.3 1.978 0 3.442-4.122 3.442-4.122s-2.094-.81-2.094-3.163c0-2.085 1.68-2.944 1.68-2.944s-.86-1.556-3.044-1.556c-.772 0-1.436.268-1.955.477-.334.135-.609.245-.814.245-.257 0-.567-.119-.926-.257-.499-.192-1.093-.421-1.777-.421-1.811 0-3.743 1.621-3.743 4.713 0 1.33.41 2.799 1.019 4.05H5V5h8v4h2V4a2 2 0 0 0-2-2zm12.957 6.94c1.015-1.22.804-2.484.804-2.484s-1.42.006-2.442 1.352c-.908 1.197-.676 2.222-.676 2.222s1.231.213 2.314-1.09" clip-rule="evenodd"/></svg>
